src/assets/images/instagram.svg

<svg width="64" height="64" viewBox="0 0 64 64" fill="none" xmlns="http://www.w3.org/2000/svg">
<g opacity="0.8">
<path fill-rule="evenodd" clip-rule="evenodd" d="M17 24C17 20.134 20.134 17 24 17H40C43.866 17 47 20.134 47 24V40C47 43.866 43.866 47 40 47H24C20.134 47 17 43.866 17 40V24ZM24 19C21.2386 19 19 21.2386 19 24V40C19 42.7614 21.2386 45 24 45H40C42.7614 45 45 42.7614 45 40V24C45 21.2386 42.7614 19 40 19H24Z" fill="#31394D"/>
<path fill-rule="evenodd" clip-rule="evenodd" d="M32 26C28.6863 26 26 28.6863 26 32C26 35.3137 28.6863 38 32 38C35.3137 38 38 35.3137 38 32C38 28.6863 35.3137 26 32 26ZM24 32C24 27.5817 27.5817 24 32 24C36.4183 24 40 27.5817 40 32C40 36.4183 36.4183 40 32 40C27.5817 40 24 36.4183 24 32Z" fill="#31394D"/>
<circle cx="40.5" cy="23.5" r="1.5" fill="#31394D"/>
</g>
</svg>

<?xml version="1.0" encoding="utf-8"?>
<!-- Generator: Adobe Illustrator 17.1.0, SVG Export Plug-In . SVG Version: 6.00 Build 0)  -->
<!DOCTYPE svg PUBLIC "-//W3C//DTD SVG 1.1//EN" "http://www.w3.org/Graphics/SVG/1.1/DTD/svg11.dtd">
<svg version="1.1" id="Layer_1" xmlns="http://www.w3.org/2000/svg" xmlns:xlink="http://www.w3.org/1999/xlink" x="0px" y="0px"
	 viewBox="16.1 16.5 31.8 31.3" enable-background="new 16.1 16.5 31.8 31.3" xml:space="preserve">
<g opacity="0.8">
	<path fill="#31394D" d="M17,24c0-3.9,3.1-7,7-7h16c3.9,0,7,3.1,7,7v16c0,3.9-3.1,7-7,7H24c-3.9,0-7-3.1-7-7V24z M24,19
		c-2.8,0-5,2.2-5,5v16c0,2.8,2.2,5,5,5h16c2.8,0,5-2.2,5-5V24c0-2.8-2.2-5-5-5H24z"/>
	<path fill="#31394D" d="M32,26c-3.3,0-6,2.7-6,6s2.7,6,6,6s6-2.7,6-6S35.3,26,32,26z M24,32c0-4.4,3.6-8,8-8s8,3.6,8,8s-3.6,8-8,8
		S24,36.4,24,32z"/>
	<circle fill="#31394D" cx="40.5" cy="23.5" r="1.5"/>
</g>
</svg>
